brandFactory_export/1.Light/Imagen_1Light.svg

<?xml version="1.0" encoding="UTF-8"?>
<svg width="24px" height="24px" viewBox="0 0 24 24" version="1.1" xmlns="http://www.w3.org/2000/svg" xmlns:xlink="http://www.w3.org/1999/xlink">
    <title>1.Light/Imagen_1Light</title>
    <g id="Symbols" stroke="none" stroke-width="1" fill="none" fill-rule="evenodd">
        <g id="1.Light/Imagen_1Light" fill="#5CB615" fill-rule="nonzero">
            <path d="M22.6386555,19.2756303 L22.6386555,4.49915966 C22.6386555,4.33781513 22.312605,4.02521008 21.9193277,4.02521008 L1.70420168,4.02521008 C1.30756303,4.02521008 0.988235294,4.31092437 0.988235294,4.49915966 L0.98487395,19.2789916 C0.98487395,19.4672269 1.30756303,19.7529412 1.70420168,19.7529412 L21.9226891,19.7529412 C22.312605,19.7495798 22.6386555,19.4369748 22.6386555,19.2756303 L22.6386555,19.2756303 Z M21.9193277,3.02689076 C22.8134454,3.02689076 23.6235294,3.72605042 23.6235294,4.49579832 L23.6235294,19.2756303 C23.6235294,20.0420168 22.810084,20.7445501 21.9193277,20.7445501 L1.70084034,20.7445501 C0.796638655,20.7478992 0,20.0588235 0,19.2756303 L0.00336134454,4.49579832 C0.00336134454,3.71260504 0.8,3.02689076 1.70756303,3.02689076 L21.9193277,3.02689076 Z M5.8789916,6.77142857 C5.06554622,6.77142857 4.40336134,7.44033613 4.40336134,8.2605042 C4.40336134,9.08403361 5.06554622,9.74957983 5.8789916,9.74957983 C6.69243697,9.74957983 7.35462185,9.08067227 7.35462185,8.2605042 C7.35462185,7.44033613 6.69243697,6.77142857 5.8789916,6.77142857 Z M5.8789916,10.7478992 C4.5210084,10.7478992 3.41848739,9.63193277 3.41848739,8.26386555 C3.41848739,6.89579832 4.5210084,5.77983193 5.8789916,5.77983193 C7.23697479,5.77983193 8.3394958,6.89579832 8.3394958,8.26386555 C8.3394958,9.63193277 7.23697479,10.7478992 5.8789916,10.7478992 L5.8789916,10.7478992 Z M17.0487395,9.8302521 L20.9445378,12.8386555 C21.1596639,13.0067227 21.2033613,13.3193277 21.0386555,13.5378151 C20.8773109,13.7529412 20.5680672,13.7966387 20.3529412,13.6319328 L20.3495798,13.6285714 L16.7563025,10.8554622 L12.5478992,14.2369748 L15.1193277,16.6840336 C15.3176471,16.8722689 15.3277311,17.1882353 15.1394958,17.3865546 C14.9546218,17.5848739 14.6487395,17.594958 14.4504202,17.4134454 L14.4436975,17.4067227 L10.2352941,13.4033613 L4.23529412,18.4453782 C4.02689076,18.6201681 3.71764706,18.5932773 3.54621849,18.3848739 L3.54285714,18.3815126 C3.36806723,18.1697479 3.39831933,17.8571429 3.60672269,17.6823529 L9.9394958,12.3546218 C10.1310924,12.1932773 10.4134454,12.2033613 10.5915966,12.3747899 L11.8218487,13.5445378 L16.4436975,9.83697479 C16.6184874,9.69579832 16.8672269,9.69243697 17.0487395,9.8302521 Z" id="Imagen_1Light"></path>
        </g>
    </g>
</svg>

<svg width="24" height="24" viewBox="0 0 24 24" xmlns="http://www.w3.org/2000/svg"><path d="M22.639 19.276V4.499c0-.161-.326-.474-.72-.474H1.704c-.396 0-.716.286-.716.474L.985 19.28c0 .188.323.474.72.474h20.218c.39-.003.716-.316.716-.477zm-.72-16.25c.894 0 1.705.7 1.705 1.47v14.78c0 .766-.814 1.469-1.705 1.469H1.701C.797 20.748 0 20.059 0 19.275l.003-14.78c0-.782.797-1.468 1.705-1.468h20.211zM5.88 6.772c-.813 0-1.476.67-1.476 1.49 0 .823.663 1.489 1.476 1.489s1.476-.67 1.476-1.49-.663-1.489-1.476-1.489zm0 3.977c-1.358 0-2.46-1.116-2.46-2.484 0-1.368 1.102-2.484 2.46-2.484 1.358 0 2.46 1.116 2.46 2.484 0 1.368-1.102 2.484-2.46 2.484zm11.17-.918l3.896 3.009c.215.168.258.48.094.699a.488.488 0 01-.686.094l-.003-.003-3.594-2.774-4.208 3.382 2.571 2.447a.498.498 0 01.02.703.488.488 0 01-.689.026l-.006-.006-4.209-4.004-6 5.042a.486.486 0 01-.689-.06l-.003-.003a.499.499 0 01.064-.7l6.332-5.327a.488.488 0 01.653.02l1.23 1.17 4.622-3.708a.49.49 0 01.605-.007z" fill="#5CB615" fill-rule="nonzero"/></svg>
